!!!COM: Josephine Lang
!!!CNT: Deutsch
!!!TXO: Deutsch
!!!OTL: "Du gleichst dem klaren blauen See"
!!!LYR: Kunde
!!!OPS: Op. 33
!!!ONM: No. 1
!!!ENC: Alyona Dzerbina
!!!YOR: Josephine Lang: Selected Songs
!!!YOR: Da Capo Press, 1982
!!!ODT: 1860/
!!NB: Vocal melody only encoded.
**kern
*staff1
*clefG2
*k[]
*met(C)
*M4/4
*MM[Langsam und ausdruckvoll]
1r
=2
1r
=3
1r
=4
1r
=5
{(4e
8.e
16e
4.f
8e
=6
4.e
8d
4c)}
8r
{8c
=7
(4d
8e)
8f
(8a
8g)
8f
8e
=8
2d}
4r
8r
{8d
=9
(4a
8b)
8a
4g
4d
=10
(4a
8.b)
16a
4g}
{8f#
8e
=11
4.A
8B
8c
16B
16A
8.B
16A
=12
2G}
4r
8r
{8g
=13
(4b
8a)
8b
4cc
4g
=14
(4g
8f)
8e
(4e
4d)
=15
4b}
4r
{(8dd
8cc
8g)
8e
=16
(4d
12f#
12e)
12d
(4.d
8d#)}
=17
{(4e
8.e
16e
4f)
8r
([8e
=18
4.e]
8d
4d)}
8r
{8d
=19
(4d
8e)
8f
(8a
8g
8f)
8e
=20
2d}
2r
=21
{4e
8.e
16e
4b-
8r
8c
=22
4.c
8a
(4a
8b)
8cc
=23
(8cc
8b
8a)
(8g
8f
8d
8.A
16B
=24
2c)}
2r
=25
1r
=26
1r
==
*-
